SVG_Azure_All/Cost exports.svg

<?xml version="1.0" encoding="UTF-8" standalone="no"?>
<!-- Generated by Microsoft Visio, SVG Export Cost exports.svg Page-1 -->

<svg
   xmlns:dc="http://purl.org/dc/elements/1.1/"
   xmlns:cc="http://creativecommons.org/ns#"
   xmlns:rdf="http://www.w3.org/1999/02/22-rdf-syntax-ns#"
   xmlns:svg="http://www.w3.org/2000/svg"
   xmlns="http://www.w3.org/2000/svg"
   xmlns:sodipodi="http://sodipodi.sourceforge.net/DTD/sodipodi-0.dtd"
   xmlns:inkscape="http://www.inkscape.org/namespaces/inkscape"
   width="0.7874378in"
   height="0.74791563in"
   viewBox="0 0 56.695589 53.85001"
   xml:space="preserve"
   class="st3"
   version="1.1"
   id="svg24"
   sodipodi:docname="Cost exports.svg"
   style="font-size:12px;overflow:visible;color-interpolation-filters:sRGB;fill:none;fill-rule:evenodd;stroke-linecap:square;stroke-miterlimit:3"
   inkscape:version="0.92.5 (2060ec1f9f, 2020-04-08)"><metadata
   id="metadata30"><rdf:RDF><cc:Work
       rdf:about=""><dc:format>image/svg+xml</dc:format><dc:type
         rdf:resource="http://purl.org/dc/dcmitype/StillImage" /></cc:Work></rdf:RDF></metadata><defs
   id="defs28" /><sodipodi:namedview
   pagecolor="#ffffff"
   bordercolor="#666666"
   borderopacity="1"
   objecttolerance="10"
   gridtolerance="10"
   guidetolerance="10"
   inkscape:pageopacity="0"
   inkscape:pageshadow="2"
   inkscape:window-width="640"
   inkscape:window-height="480"
   id="namedview26"
   showgrid="false"
   inkscape:zoom="1.7679873"
   inkscape:cx="37.795224"
   inkscape:cy="21.383051"
   inkscape:window-x="0"
   inkscape:window-y="0"
   inkscape:window-maximized="0"
   inkscape:current-layer="svg24" />
	<style
   type="text/css"
   id="style2">
	<![CDATA[
		.st1 {fill:#3999c6;stroke:none;stroke-linecap:butt;stroke-width:12.24}
		.st2 {fill:#57a300;stroke:none;stroke-linecap:butt;stroke-width:12.24}
		.st3 {fill:none;fill-rule:evenodd;font-size:12px;overflow:visible;stroke-linecap:square;stroke-miterlimit:3}
	]]>
	</style>

	<g
   id="g22"
   transform="translate(-12.24,-12.2443)">
		<title
   id="title4">Page-1</title>
		<g
   id="group6019-1"
   transform="translate(12.24,-34.0157)">
			<title
   id="title6">Cost exports</title>
			<g
   id="group6020-2">
				<title
   id="title8"> LogicAppsAlt</title>
				<g
   id="shape6021-3">
					<title
   id="title10">Sheet.6021</title>
					<path
   d="m 0,46.26 h 13.61 v 9.16 H 0 Z m 0,14.89 h 13.61 v 9.17 H 0 Z m 19.28,14.9 h 13.6 v 9.17 h -13.6 z m 0,14.9 h 13.6 v 9.16 H 19.28 Z M 0,90.95 h 13.61 v 9.16 H 0 Z M 19.28,46.26 h 13.6 v 9.16 h -13.6 z"
   class="st1"
   id="path12"
   inkscape:connector-curvature="0"
   style="fill:#3999c6;stroke:none;stroke-width:12.23999977;stroke-linecap:butt" />
				</g>
				<g
   id="shape6022-5"
   transform="translate(19.2756,-19.4807)">
					<title
   id="title15">Sheet.6022</title>
					<path
   d="m 21.54,71.47 v 9.16 H 0 v 9.17 h 21.54 v 10.31 L 37.42,85.6 Z"
   class="st2"
   id="path17"
   inkscape:connector-curvature="0"
   style="fill:#57a300;stroke:none;stroke-width:12.23999977;stroke-linecap:butt" />
				</g>
			</g>
		</g>
	</g>
</svg>

<?xml version="1.0" encoding="UTF-8" standalone="no"?>
<!DOCTYPE svg PUBLIC "-//W3C//DTD SVG 1.1//EN" "http://www.w3.org/Graphics/SVG/1.1/DTD/svg11.dtd">
<!-- Generated by Microsoft Visio, SVG Export Cost exports.svg Page-1 -->
<svg xmlns="http://www.w3.org/2000/svg" xmlns:xlink="http://www.w3.org/1999/xlink" xmlns:ev="http://www.w3.org/2001/xml-events"
		width="1.1274in" height="1.39047in" viewBox="0 0 81.1729 100.114" xml:space="preserve" color-interpolation-filters="sRGB"
		class="st3">
	<style type="text/css">
	<![CDATA[
		.st1 {fill:#3999c6;stroke:none;stroke-linecap:butt;stroke-width:12.24}
		.st2 {fill:#57a300;stroke:none;stroke-linecap:butt;stroke-width:12.24}
		.st3 {fill:none;fill-rule:evenodd;font-size:12px;overflow:visible;stroke-linecap:square;stroke-miterlimit:3}
	]]>
	</style>

	<g>
		<title>Page-1</title>
		<g id="group5900-1" transform="translate(12.24,-34.0157)">
			<title>Cost exports</title>
			<g id="group5901-2">
				<title> LogicAppsAlt</title>
				<g id="shape5902-3">
					<title>Sheet.5902</title>
					<path d="M0 46.26 L13.61 46.26 L13.61 55.42 L0 55.42 L0 46.26 ZM0 61.15 L13.61 61.15 L13.61 70.32 L0 70.32 L0
								 61.15 ZM19.28 76.05 L32.88 76.05 L32.88 85.22 L19.28 85.22 L19.28 76.05 ZM19.28 90.95 L32.88 90.95
								 L32.88 100.11 L19.28 100.11 L19.28 90.95 ZM0 90.95 L13.61 90.95 L13.61 100.11 L0 100.11 L0 90.95
								 ZM19.28 46.26 L32.88 46.26 L32.88 55.42 L19.28 55.42 L19.28 46.26 Z" class="st1"/>
				</g>
				<g id="shape5903-5" transform="translate(19.2756,-19.4807)">
					<title>Sheet.5903</title>
					<path d="M21.54 71.47 L21.54 80.63 L0 80.63 L0 89.8 L21.54 89.8 L21.54 100.11 L37.42 85.6 L21.54 71.47 Z"
							class="st2"/>
				</g>
			</g>
		</g>
	</g>
</svg>
